/* XPM */
static char * active_xpm[] = {
"24 24 14 1",
" 	c #2E2E32",
".	c #303034",
"+	c #37373B",
"@	c #3D3D40",
"#	c #3F3F43",
"$	c #424245",
"%	c #37373A",
"&	c #3A3A3E",
"*	c #424246",
"=	c #434346",
"-	c #343438",
";	c #414145",
">	c #36363A",
",	c #3C3C40",
"       .+@#$$#@%.       ",
"     .&*========*&.     ",
"    -;============;-    ",
"   +*==============*%   ",
"  -*================*-  ",
" .;==================;. ",
" &====================& ",
".*====================*.",
"+======================>",
"@======================,",
"#======================#",
";======================;",
";======================;",
"#======================#",
"@======================,",
"%======================>",
".*====================*.",
" &====================& ",
" .;==================;. ",
"  -*================*-  ",
"   +*==============*>   ",
"    -;============;-    ",
"     .&*========*&.     ",
"       .>,#;;#,>.       "};
