/* XPM */
static char * inactive_xpm[] = {
"24 24 13 1",
" 	c #232327",
".	c #242428",
"+	c #28282C",
"@	c #2B2B2F",
"#	c #2C2C30",
"$	c #2E2E31",
"%	c #2A2A2E",
"&	c #2E2E32",
"*	c #26262A",
"=	c #2D2D31",
"-	c #2A2A2D",
";	c #28282B",
">	c #29292D",
"       .+@#$$#@+.       ",
"     .%&&&&&&&&&&%.     ",
"    *=&&&&&&&&&&&&=*    ",
"   +&&&&&&&&&&&&&&&&+   ",
"  *&&&&&&&&&&&&&&&&&&*  ",
" .=&&&&&&&&&&&&&&&&&&=. ",
" %&&&&&&&&&&&&&&&&&&&&- ",
".&&&&&&&&&&&&&&&&&&&&&&.",
"+&&&&&&&&&&&&&&&&&&&&&&;",
"@&&&&&&&&&&&&&&&&&&&&&&@",
"#&&&&&&&&&&&&&&&&&&&&&&#",
"$&&&&&&&&&&&&&&&&&&&&&&$",
"$&&&&&&&&&&&&&&&&&&&&&&$",
"#&&&&&&&&&&&&&&&&&&&&&&#",
"@&&&&&&&&&&&&&&&&&&&&&&@",
"+&&&&&&&&&&&&&&&&&&&&&&;",
".&&&&&&&&&&&&&&&&&&&&&&.",
" %&&&&&&&&&&&&&&&&&&&&- ",
" .=&&&&&&&&&&&&&&&&&&=. ",
"  *&&&&&&&&&&&&&&&&&&*  ",
"   +&&&&&&&&&&&&&&&&;   ",
"    *=&&&&&&&&&&&&=*    ",
"     .-&&&&&&&&&&>.     ",
"       .;@#$$#@;.       "};
