/* XPM */
static char * shade_toggled_pressed_xpm[] = {
"24 24 25 1",
" 	c #2E2E32",
".	c #353539",
"+	c #48484C",
"@	c #5B5B5E",
"#	c #636366",
"$	c #6A6A6C",
"%	c #5A5A5E",
"&	c #48484B",
"*	c #343438",
"=	c #545457",
"-	c #6B6B6E",
";	c #6C6C6F",
">	c #535357",
",	c #414144",
"'	c #69696C",
")	c #404044",
"!	c #49494C",
"~	c #6C6C6E",
"{	c #414145",
"]	c #535356",
"^	c #353538",
"/	c #5A5A5D",
"(	c #FFFFFF",
"_	c #525256",
":	c #626265",
"       .+@#$$#%&.       ",
"     *=-;;;;;;;;->*     ",
"    ,';;;;;;;;;;;;')    ",
"   !;;;;;;;;;;;;;;;~+   ",
"  {~;;;;;;;;;;;;;;;;~,  ",
" *';;;;;;;;;;;;;;;;;;'* ",
" =;;;;;;;;;;;;;;;;;;;;] ",
".-;;;;;;;;;;;;;;;;;;;;-^",
"+;;;;;;;;;;;;;;;;;;;;;;&",
"/;;;;;;;;;;;;;;;;;;;;;;/",
"#;;;;;;(;;;;;;;;(;;;;;;#",
"';;;;;;;(;;;;;;(;;;;;;;'",
"';;;;;;;;(;;;;(;;;;;;;;'",
"#;;;;;;;;;(;;(;;;;;;;;;#",
"/;;;;;;;;;;((;;;;;;;;;;/",
"+;;;;;;;;;;;;;;;;;;;;;;&",
".-;;;;;;;;;;;;;;;;;;;;-*",
" =;;;;;;;;;;;;;;;;;;;;] ",
" *';;;;;;;;;;;;;;;;;;'* ",
"  ,~;;;;;;;;;;;;;;;;~)  ",
"   +~;;;;;;;;;;;;;;~&   ",
"    )';;;;;;;;;;;;')    ",
"     *]-;;;;;;;;-_*     ",
"       ^&/:'':/&^       "};
