/* XPM */
static char * inactive_xpm[] = {
"24 24 8 1",
" 	c #FAFAFB",
".	c #F9F9FA",
"+	c #F6F6F7",
"@	c #F3F3F4",
"#	c #F1F1F2",
"$	c #F0F0F1",
"%	c #F4F4F5",
"&	c #F7F7F8",
"       .+@#$$#@+.       ",
"     .%$$$$$$$$$$%.     ",
"    &$$$$$$$$$$$$$$&    ",
"   +$$$$$$$$$$$$$$$$+   ",
"  &$$$$$$$$$$$$$$$$$$&  ",
" .$$$$$$$$$$$$$$$$$$$$. ",
" %$$$$$$$$$$$$$$$$$$$$% ",
".$$$$$$$$$$$$$$$$$$$$$$.",
"+$$$$$$$$$$$$$$$$$$$$$$+",
"@$$$$$$$$$$$$$$$$$$$$$$@",
"#$$$$$$$$$$$$$$$$$$$$$$#",
"$$$$$$$$$$$$$$$$$$$$$$$$",
"$$$$$$$$$$$$$$$$$$$$$$$$",
"#$$$$$$$$$$$$$$$$$$$$$$#",
"@$$$$$$$$$$$$$$$$$$$$$$@",
"+$$$$$$$$$$$$$$$$$$$$$$+",
".$$$$$$$$$$$$$$$$$$$$$$.",
" %$$$$$$$$$$$$$$$$$$$$% ",
" .$$$$$$$$$$$$$$$$$$$$. ",
"  &$$$$$$$$$$$$$$$$$$&  ",
"   +$$$$$$$$$$$$$$$$+   ",
"    &$$$$$$$$$$$$$$&    ",
"     .%$$$$$$$$$$%.     ",
"       .+@#$$#@+.       "};
