/* XPM */
static char * active_xpm[] = {
"24 24 12 1",
" 	c #EBEBED",
".	c #E9E9EB",
"+	c #E3E3E5",
"@	c #DEDEE0",
"#	c #DBDBDD",
"$	c #D9D9DB",
"%	c #E0E0E2",
"&	c #D8D8DA",
"*	c #E5E5E7",
"=	c #E6E6E7",
"-	c #D9D9DA",
";	c #E6E6E8",
"       .+@#$$#@+.       ",
"     .%$&&&&&&&&$%.     ",
"    *$&&&&&&&&&&&&$=    ",
"   +-&&&&&&&&&&&&&&-+   ",
"  *-&&&&&&&&&&&&&&&&-*  ",
" .$&&&&&&&&&&&&&&&&&&$. ",
" %&&&&&&&&&&&&&&&&&&&&% ",
".$&&&&&&&&&&&&&&&&&&&&$.",
"+&&&&&&&&&&&&&&&&&&&&&&+",
"@&&&&&&&&&&&&&&&&&&&&&&@",
"#&&&&&&&&&&&&&&&&&&&&&&#",
"$&&&&&&&&&&&&&&&&&&&&&&$",
"$&&&&&&&&&&&&&&&&&&&&&&$",
"#&&&&&&&&&&&&&&&&&&&&&&#",
"@&&&&&&&&&&&&&&&&&&&&&&@",
"+&&&&&&&&&&&&&&&&&&&&&&+",
".$&&&&&&&&&&&&&&&&&&&&$.",
" %&&&&&&&&&&&&&&&&&&&&% ",
" .$&&&&&&&&&&&&&&&&&&$. ",
"  *-&&&&&&&&&&&&&&&&-;  ",
"   +-&&&&&&&&&&&&&&-+   ",
"    =$&&&&&&&&&&&&$;    ",
"     .%$&&&&&&&&$%.     ",
"       .+@#$$#@+.       "};
