/* XPM */
static char * prelight_xpm[] = {
"24 24 16 1",
" 	c #EBEBED",
".	c #E8E8EA",
"+	c #DFDFE1",
"@	c #D7D7D9",
"#	c #D3D3D5",
"$	c #D0D0D2",
"%	c #DADADC",
"&	c #D0D0D1",
"*	c #CFCFD1",
"=	c #E3E3E5",
"-	c #D1D1D2",
";	c #E2E2E4",
">	c #D1D1D3",
",	c #E0E0E1",
"'	c #DBDBDD",
")	c #D4D4D5",
"       .+@#$$#@+.       ",
"     .%&********&%.     ",
"    =-************-=    ",
"   +****************+   ",
"  ;******************=  ",
" .>******************>. ",
" %********************% ",
".&********************&.",
"+**********************,",
"@**********************@",
"#**********************#",
"-**********************-",
"-**********************-",
"#**********************#",
"@**********************@",
"+**********************,",
".&********************&.",
" %********************% ",
" .>******************>. ",
"  =******************=  ",
"   +****************,   ",
"    =-************>=    ",
"     .%&********&'.     ",
"       .,@)--)@,.       "};
