/* XPM */
static char * pressed_xpm[] = {
"24 24 22 1",
" 	c #EBEBED",
".	c #E5E5E7",
"+	c #D3D3D5",
"@	c #C3C3C4",
"#	c #BCBCBD",
"$	c #B5B5B7",
"%	c #C3C3C5",
"&	c #D4D4D6",
"*	c #E6E6E7",
"=	c #C9C9CB",
"-	c #B4B4B5",
";	c #B3B3B5",
">	c #DADADC",
",	c #B6B6B8",
"'	c #E6E6E8",
")	c #CACACB",
"!	c #BBBBBD",
"~	c #B6B6B7",
"{	c #C4C4C5",
"]	c #CACACC",
"^	c #DBDBDD",
"/	c #BCBCBE",
"       .+@#$$#%&.       ",
"     *=-;;;;;;;;-=*     ",
"    >,;;;;;;;;;;;;,>    ",
"   +;;;;;;;;;;;;;;;-+   ",
"  >-;;;;;;;;;;;;;;;;->  ",
" .,;;;;;;;;;;;;;;;;;;,' ",
" =;;;;;;;;;;;;;;;;;;;;) ",
".-;;;;;;;;;;;;;;;;;;;;-.",
"+;;;;;;;;;;;;;;;;;;;;;;&",
"%;;;;;;;;;;;;;;;;;;;;;;%",
"!;;;;;;;;;;;;;;;;;;;;;;!",
"~;;;;;;;;;;;;;;;;;;;;;;~",
"~;;;;;;;;;;;;;;;;;;;;;;~",
"!;;;;;;;;;;;;;;;;;;;;;;!",
"%;;;;;;;;;;;;;;;;;;;;;;{",
"+;;;;;;;;;;;;;;;;;;;;;;&",
".-;;;;;;;;;;;;;;;;;;;;-*",
" =;;;;;;;;;;;;;;;;;;;;] ",
" *,;;;;;;;;;;;;;;;;;;,' ",
"  >-;;;;;;;;;;;;;;;;-^  ",
"   +-;;;;;;;;;;;;;;-&   ",
"    >,;;;;;;;;;;;;,^    ",
"     *)-;;;;;;;;-]*     ",
"       .&%/~~/%&.       "};
